rospo-icon-theme-classic-common/48x48/places/folder-violet-desktop.svg

<svg height="48" width="48" xmlns="http://www.w3.org/2000/svg"><rect height="36" opacity=".2" rx="2" width="40" x="4" y="7"/><path d="m4 9.9v30.1c0 1.108.892 2 2 2h36c1.108 0 2-.892 2-2v-30.1z" fill="#a674de"/><path d="m6 6c-1.108 0-2 .892-2 2v2h40v-2c0-1.108-.892-2-2-2z" fill="#3a284d"/><path d="m16 38c-1.108 0-2 .892-2 2v2h20v-2c0-1.108-.892-2-2-2z" fill="#3a284d"/><path d="m6 6c-1.108 0-2 .892-2 2v1c0-1.108.892-2 2-2h36c1.108 0 2 .892 2 2v-1c0-1.108-.892-2-2-2z" fill="#fff" opacity=".1"/></svg>

<svg xmlns="http://www.w3.org/2000/svg" width="48" height="48" version="1.1">
 <rect style="opacity:0.2" width="40" height="36" x="4" y="7" rx="2" ry="2"/>
 <path style="fill:#a674de" d="M 4,9.9 4,40 c 0,1.108 0.892,2 2,2 l 36,0 c 1.108,0 2,-0.892 2,-2 L 44,9.9 Z"/>
 <path style="fill:#3a284d" d="M 6,6 C 4.892,6 4,6.892 4,8 V 10 H 44 V 8 C 44,6.892 43.108,6 42,6 Z"/>
 <path style="fill:#3a284d" d="M 16,38 C 14.892,38 14,38.892 14,40 V 42 H 34 V 40 C 34,38.892 33.108,38 32,38 Z"/>
 <path style="opacity:.1;fill:#ffffff" d="m6 6c-1.108 0-2 0.892-2 2v1c0-1.108 0.892-2 2-2h36c1.108 0 2 0.892 2 2v-1c0-1.108-0.892-2-2-2z"/>
</svg>
